X:1
T:James Gibb editions
T:Sleep, wayward thoughts - Dowland
T:#
%%score [ 1 2 3 4 ]
L:1/8
Q:1/4=150
M:3/2
K:C
V:1 treble nm="Soprano" snm="S"
V:2 treble nm="Alto" snm="A"
V:3 treble-8 nm="Tenor" snm="T"
V:4 bass nm="Bass" snm="B"
V:1
"^Sleep, wayward thoughts""^John Dowland\n(1563-1626)" B4 d4 d4 | d8 d4 | e8 d4- | d4 c4 B4 | %4
w: Sleep way- ward|thoughts, and|rest you|* with my|
w: But on the|fu- ry|of my|* rest- less|
w: My love doth|rage, and|yet my|* love doth|
 A8 z4 | A4 A4 A4 | d8 B4 | c8 B4- | B4 A4 A4 | G8 z4 | B4 d4 d4 | d8 d4 | e8 d4- | d4 c4 B4 | %14
w: love,|Let not my|love be|with my|* love dis-|eas'd,|Touch not, proud|hands, least|you her|* an- ger|
w: fear,|The hid- den|ang- uish|of my|* flesh de-|sires,|The glor- ies|and the|beau- ties|* that ap-|
w: rest,|Fear in my|love, and|yet my|* love se-|cure,|Peace in my|love, and|yet my|* love op-|
 A8 z4 | A4 A4 A4 | d8 B4 | c8 B4- | B4 A4 A4 | G8 z4 | G4 c4 c4 | c6 e2 d4 | c4 B4 B4 | A8 z4 | %24
w: move,|But pine you|with my|long- ings,|* long dis-|pleas'd.|Thus while she|sleeps, I sor-|row for her|sake,|
w: pear,|Be- tween her|brows near|Cu- pid's|* clos- ed|fires.|Thus while she|sleeps, moves sigh-|ing for her|sake,|
w: press'd,|Im- pat- ient|yet of|per- fect|* tem- p'ra-|ture.|Sleep, dain- ty|love, while I|sigh for thy|sake,|
 A4 B4 ^c4 | d12- | d8 B4 | c12 | B4 A4 A4 | G12 | G4 c4 c4 | c6 e2 d4 | c4 B4 B4 | A8 z4 | %34
w: So sleeps my|love|* and|yet|my love doth|wake.|Thus while she|sleeps, I sor-|row for her|sake,|
w: So sleeps my|love|* and|yet|my love doth|wake.|Thus while she|sleeps, moves sigh-|ing for her||
w: So sleeps my|love|* and|yet|my love doth|wake.|Sleep, dain- ty|love, while I|sigh for thy||
 A4 B4 ^c4 | d12- | d8 B4 | c12 | B4 A4 A4 | G12 |] %40
w: So sleeps my|love,|* and|yet|my love doth|wake.|
w: ||||||
w: ||||||
V:2
 G4 G4 G4 | G8 G4 | G12 | G4 (E3 ^F) G4 | ^F8 z4 | ^F4 F4 F4 | ^F8 G4 | (E6 ^F2) G4 | G8 ^F4 | %9
w: Sleep way- ward|thoughts, and|rest|you with * my|love,|Let not my|love be|with * my|love dis-|
w: But on the|fu- ry|of|my rest\- * less|fear,|The hid- den|ang- uish|of * my|flesh de-|
w: My love doth|rage, and|yet|my love * doth|rest,|Fear in my|love, and|yet * my|love se-|
 G8 z4 | G4 G4 G4 | G8 G4 | G12 | G4 (E3 ^F) G4 | ^F8 z4 | ^F4 F4 F4 | ^F8 G4 | (E6 ^F2) G4 | %18
w: eas'd,|Touch not, proud|hands, least|you|her an\- * ger|move,|But pine you|with my|long\- * ings,|
w: sires,|The glor- ies|and the|beau-|ties that * ap-|pear,|Be- tween her|brows near|Cu\- * pid's|
w: cure,|Peace in my|love, and|yet|my love * op-|press'd,|Im- pat- ient|yet of|per\- * fect|
 G8 ^F4 | G8 z4 | E4 G4 G4 | G6 c2 B4 | A4 A4 ^G4 | A12 | ^F4 G4 G4 | ^F6 G2 A4 | B4 A4 (G4- | %27
w: long dis-|pleas'd.|Thus while she|sleeps, I sor-|row for her|sake,|So sleeps my|love, so sleeps|my love and|
w: clos- ed|fires.|Thus while she|sleeps, moves sigh-|ing for her|sake,|So sleeps my|love, so sleeps|my love and|
w: tem- p'ra-|ture.|Sleep, dain- ty|love, while I|sigh for thy|sake,|So sleeps my|love, so sleeps|my love and|
 G2 F2) E2 F2 G4 | D4 D6 C2 | B,12 | E4 G4 G4 | G6 c2 B4 | A4 A4 ^G4 | A12 | ^F4 G4 G4 | %35
w: * * yet, and yet|my love doth|wake.|Thus while she|sleeps, I sor-|row for her|sake,|So sleeps my|
w: * * yet, and yet|my love doth|wake.|Thus while she|sleeps, moves sigh-|ing for her|||
w: * * yet, and yet|my love doth|wake.|Sleep, dain- ty|love, while I|sigh for thy|||
 ^F6 G2 A4 | B4 A4 (G4- | G2 F2) E2 F2 G4 | D4 D6 C2 | B,12 |] %40
w: love, so sleeps|my love, and|* * yet, and yet|my love doth|wake.|
w: |||||
w: |||||
V:3
 d4 B4 B4 | B8 B4 | c8 G4- | G4 A4 d4 | d8 z4 | d4 d4 d4 | A4 d8 | (c3 d e4) d4 | d4 (d6 c2) | %9
w: Sleep way- ward|thoughts, and|rest you|* with my|love,|Let not my|love be|with * * my|love dis\- *|
w: But on the|fu- ry|of my|* rest- less|fear,|The hid- den|ang- uish|of * * my|flesh de\- *|
w: My love doth|rage, and|yet my|* love doth|rest,|Fear in my|love, and|yet * * my|love se\- *|
 B8 z4 | d4 B4 B4 | B8 B4 | c8 G4- | G4 A4 d4 | d8 z4 | d4 d4 d4 | A4 d8 | (c3 d e4) d4 | %18
w: eas'd,|Touch not, proud|hands, least|you her|* an- ger|move,|But pine you|with my|long\- * * ings,|
w: sires,|The glor- ies|and the|beau- ties|* that ap-|pear,|Be- tween her|brows near|Cu\- * * pid's|
w: cure,|Peace in my|love, and|yet my|* love op-|press'd,|Im- pat- ient|yet of|per\- * * fect|
 d4 (d6 c2) | B8 z4 | (c3 d) e4 e4 | e6 g2 g4 | e4 e6 d2 | ^c12 | d4 d4 e4 | A8 z2 d2 | %26
w: long dis\- *|pleas'd.|Thus * while she|sleeps, I sor-|row for her|sake,|So sleeps my|love, so|
w: clos- ed *|fires.|Thus * while she|sleeps, moves sigh-|ing for her|sake,|So sleeps my|love, so|
w: tem- p'ra\- *|ture.|Sleep, * dain- ty|love, while I|sigh for thy|sake,|So sleeps my|love, so|
 B2 G2 d6 d2 | e4 c4 d4- | d2 G4 G2 ^F4 | G12 | (c3 d) e4 e4 | e6 g2 g4 | e4 e6 d2 | ^c12 | %34
w: sleeps my love and|yet, and yet|* my love doth|wake.|Thus * while she|sleeps, I sor-|row for her|sake,|
w: sleeps my love and|yet, and yet|* my love doth|wake.|Thus * while she|sleeps, moves sigh-|ing for her||
w: sleeps my love and|yet, and yet|* my love doth|wake..|Sleep, * dain- ty|love, while I|sigh for thy||
 d4 d4 e4 | A8 z2 d2 | B2 G2 d6 d2 | e4 c4 d4- | d2 G4 G2 ^F4 | G12 |] %40
w: So sleeps my|love, so|sleeps my love, and|yet, and yet|* my love doth|wake.|
w: ||||||
w: ||||||
V:4
 G,4 G,4 G,4 | G,8 G,4 | C,8 B,,4- | B,,4 A,,4 G,,4 | D,8 z4 | D,4 D,4 D,4 | D,8 G,4 | C,8 G,,4- | %8
w: Sleep way- ward|thoughts, and|rest you|* with my|love,|Let not my|love be|with my|
w: But on the|fu- ry|of my|* rest- less|fear,|The hid- den|ang- uish|of my|
w: My love doth|rage, and|yet my|* love doth|rest,|Fear in my|love, and|yet my|
 G,,4 D,4 D,4 | G,,8 z4 | G,4 G,4 G,4 | G,8 G,4 | C,8 B,,4- | B,,4 A,,4 G,,4 | D,8 z4 | %15
w: * love dis-|eas'd,|Touch not, proud|hands, least|you her|* an- ger|move,|
w: * flesh de-|sires,|The glor- ies|and the|beau- ties|* that ap-|pear,|
w: * love se-|cure,|Peace in my|love, and|yet my|* love op-|press'd,|
 D,4 D,4 D,4 | D,8 G,4 | C,8 G,,4- | G,,4 D,4 D,4 | G,,8 z4 | C,4 C,4 C,4 | C,6 C,2 G,4 | %22
w: But pine you|with my|long- ings,|* long dis-|pleas'd.|Thus while she|sleeps, I sor-|
w: Be- tween her|brows near|Cu- pid's|* clos- ed|fires.|Thus while she|sleeps, moves sigh-|
w: Im- pat- ient|yet of|per- fect|* tem- p'ra-|ture.|Sleep, dain- ty|love, while I|
 A,4 E,4 E,4 | A,,12 | D,4 G,4 E,4 | D,6 E,2 ^F,4 | G,4 ^F,4 G,4 | C,8 G,,4- | G,,4 D,4 D,4 | %29
w: row for her|sake,|So sleeps my|love, so sleeps|my love and|yet my|* love doth|
w: ing for her|sake,|So sleeps my|love, so sleeps|my love and|yet my|* love doth|
w: sigh for thy|sake,|So sleeps my|love, so sleeps|my love and|yet my|* love doth|
 G,,12 | C,4 C,4 C,4 | C,6 C,2 G,4 | A,4 E,4 E,4 | A,,12 | D,4 G,4 E,4 | D,6 E,2 ^F,4 | %36
w: wake.|Thus while she|sleeps, I sor-|row for her|sake,|So sleeps my|love, so sleeps|
w: wake.|Thus while she|sleeps, moves sigh-|ing for her||||
w: wake.|Sleep, dain- ty|love, while I|sigh for thy||||
 G,4 ^F,4 G,4 | C,8 G,,4- | G,,4 D,4 D,4 | G,,12 |] %40
w: my love, and|yet my|* love doth|wake.|
w: ||||
w: ||||

